X:0
T:Förtvivlans polska
R:slängpolska
H:efter Johan Jakob Bruun (1818-1889), Särslöv, Södervidinge,
H:som hört den av "tattaren och rackaren" Bolin i Särslöv.
B:SvL Skåne 574
O:Skåne
M:3/4
L:1/16
K:Em fgp=1
{c}B^A(Bc) (dc)BA B4 | {F}E(^DE)F (GF)ED E4 | ^G3F E2F2 G2A2 |
B2(Bc) A2(AB) ^G4 :||: .B2.G2 .G2.G2 (Bd).d2 |
.A2.F2 .F2.F2 (Ad).d2 | .^A2.F2 .F2.F2 (Ad)dd |
{c}B2B^A B2Bc (dc)(BA) | {c}B2BA G2GF (E{FE}^D)EF |
(GF)E^D B2 E2 E4:|
